images/aREN.svg

<svg height="256.001" viewBox="0 0 256 256.001" width="256" xmlns="http://www.w3.org/2000/svg" xmlns:xlink="http://www.w3.org/1999/xlink"><linearGradient id="a" gradientUnits="objectBoundingBox" x1=".843" x2=".206" y1=".135" y2=".886"><stop offset="0" stop-color="#b6509e"/><stop offset="1" stop-color="#2ebac6"/></linearGradient><path d="m128 256a128.976 128.976 0 0 1 -25.8-2.6 127.309 127.309 0 0 1 -45.77-19.261 128.366 128.366 0 0 1 -46.375-56.315 127.357 127.357 0 0 1 -7.455-24.024 129.251 129.251 0 0 1 0-51.593 127.31 127.31 0 0 1 19.26-45.77 128.372 128.372 0 0 1 56.317-46.378 127.33 127.33 0 0 1 24.023-7.459 129.244 129.244 0 0 1 51.593 0 127.308 127.308 0 0 1 45.77 19.26 128.367 128.367 0 0 1 46.375 56.316 127.343 127.343 0 0 1 7.462 24.024 129.248 129.248 0 0 1 0 51.593 127.3 127.3 0 0 1 -19.26 45.77 128.382 128.382 0 0 1 -56.316 46.375 127.4 127.4 0 0 1 -24.024 7.462 128.977 128.977 0 0 1 -25.8 2.6zm0-242.287a115.145 115.145 0 0 0 -23.033 2.322 113.657 113.657 0 0 0 -40.867 17.197 114.622 114.622 0 0 0 -41.4 50.283 113.7 113.7 0 0 0 -6.659 21.452 115.4 115.4 0 0 0 0 46.065 113.66 113.66 0 0 0 17.2 40.866 114.627 114.627 0 0 0 50.282 41.407 113.75 113.75 0 0 0 21.453 6.658 115.381 115.381 0 0 0 46.065 0 113.609 113.609 0 0 0 40.866-17.2 114.622 114.622 0 0 0 41.393-50.278 113.741 113.741 0 0 0 6.659-21.453 115.4 115.4 0 0 0 0-46.065 113.662 113.662 0 0 0 -17.2-40.865 114.619 114.619 0 0 0 -50.274-41.402 113.74 113.74 0 0 0 -21.453-6.659 115.145 115.145 0 0 0 -23.032-2.327z" fill="url(#a)"/><circle cx="128" cy="128" fill="#0e3158" r="98"/><g fill="#fff" transform="translate(70.578 62.922)"><path d="m17.776 27.342 9.566-5.5 1.283 2.222 35.249-20.34-2.574-1.481-2.59-1.502-1.283-.741-57.427 33.173v1.481l16.493-9.534z"/><path d="m17.776 47.794 27.624-15.961 1.294 2.243 35.248-20.342-2.577-1.5-2.587-1.481-1.294-.741-75.484 43.582v1.481l16.493-9.535z" transform="translate(0 .432)"/><path d="m17.776 58.021 36.657-21.177 1.294 2.222 35.249-20.366-2.587-1.45-2.577-1.513-1.293-.737-84.519 48.8v1.513l16.493-9.535z" transform="translate(0 .648)"/><path d="m17.776 68.226 45.952-26.526 1.294 2.222 34.988-20.2-2.587-1.5-2.577-1.481-1.293-.741-93.553 54.027v1.481l16.493-9.535z" transform="translate(0 .863)"/><path d="m17.776 78.422 54.986-31.734 1.294 2.253 34.988-20.217-2.587-1.492-2.577-1.5-1.294-.741-102.586 59.241v1.481l16.493-9.513z" transform="translate(0 1.08)"/><path d="m112.914 30.752-1.294-.762-111.62 64.469v1.481l16.493-9.514 1.283 2.222 54.986-31.733 1.294 2.222 40.788-23.537v-3.722z" transform="translate(0 1.294)"/><path d="m6.832 101.917 9.253-5.331 1.283 2.222 54.893-31.681 1.294 2.243 41.049-23.7v-7.46l-109.034 62.967z" transform="translate(.241 1.65)"/><path d="m71.887 77.137 1.293 2.243 41.049-23.7v-7.46l-100 57.73 1.283.751 9.389-5.425 1.294 2.243" transform="translate(.615 2.084)"/><path d="m24.174 111.5 9.389-5.445 1.294 2.243 36.657-21.171 1.294 2.243 41.049-23.7v-7.46l-91 52.524z" transform="translate(.987 2.515)"/><path d="m32.834 116.28 9.389-5.425 1.294 2.222 27.624-15.94 1.294 2.222 41.049-23.712v-7.427l-81.944 47.319z" transform="translate(1.362 2.947)"/><path d="m40.2 120.313 1.294.741 9.42-5.425 1.262 2.243 18.59-10.755 1.294 2.253 41.049-23.712v-7.448z" transform="translate(1.736 3.378)"/><path d="m50.154 125.858 9.389-5.456 1.294 2.253 9.556-5.55 1.294 2.253 41.049-23.691v-7.447l-63.874 36.9z" transform="translate(2.11 3.81)"/><path d="m72.908 8.725-2.576-1.482-2.588-1.481-1.283-.772-66.461 38.379v1.481l16.493-9.5 1.283 2.222 18.6-10.734 1.314 2.253z" transform="translate(0 .217)"/></g></svg>

<svg xmlns="http://www.w3.org/2000/svg" xmlns:xlink="http://www.w3.org/1999/xlink" width="256" height="256" viewBox="0 0 256 256"><defs><linearGradient id="a" x1="0.843" y1="0.135" x2="0.206" y2="0.886" gradientUnits="objectBoundingBox"><stop offset="0" stop-color="#b6509e"/><stop offset="1" stop-color="#2ebac6"/></linearGradient><clipPath id="c"><rect width="256" height="256"/></clipPath></defs><g id="b" clip-path="url(#c)"><circle cx="128" cy="128" r="128" fill="#fff"/><path d="M128,256a128.976,128.976,0,0,1-25.8-2.6,127.309,127.309,0,0,1-45.77-19.261,128.366,128.366,0,0,1-46.375-56.315A127.357,127.357,0,0,1,2.6,153.8a129.251,129.251,0,0,1,0-51.593,127.31,127.31,0,0,1,19.26-45.77A128.372,128.372,0,0,1,78.177,10.059,127.33,127.33,0,0,1,102.2,2.6a129.244,129.244,0,0,1,51.593,0,127.308,127.308,0,0,1,45.77,19.26,128.367,128.367,0,0,1,46.375,56.316A127.343,127.343,0,0,1,253.4,102.2a129.248,129.248,0,0,1,0,51.593,127.3,127.3,0,0,1-19.26,45.77,128.382,128.382,0,0,1-56.316,46.375A127.4,127.4,0,0,1,153.8,253.4,128.977,128.977,0,0,1,128,256Zm0-242.287a115.145,115.145,0,0,0-23.033,2.322A113.657,113.657,0,0,0,64.1,33.232,114.622,114.622,0,0,0,22.7,83.515a113.7,113.7,0,0,0-6.659,21.452,115.4,115.4,0,0,0,0,46.065,113.66,113.66,0,0,0,17.2,40.866,114.627,114.627,0,0,0,50.282,41.407,113.75,113.75,0,0,0,21.453,6.658,115.381,115.381,0,0,0,46.065,0,113.609,113.609,0,0,0,40.866-17.2A114.622,114.622,0,0,0,233.3,172.485a113.741,113.741,0,0,0,6.659-21.453,115.4,115.4,0,0,0,0-46.065,113.662,113.662,0,0,0-17.2-40.865A114.619,114.619,0,0,0,172.485,22.7a113.74,113.74,0,0,0-21.453-6.659A115.145,115.145,0,0,0,128,13.714Z" fill="url(#a)"/><g transform="translate(2204 18334)"><circle cx="98" cy="98" r="98" transform="translate(-2174 -18304)" fill="#0e3158"/><g transform="translate(-2133.422 -18271.078)"><path d="M17.776,27.342l9.566-5.5,1.283,2.222L63.874,3.724,61.3,2.243,58.71.741,57.427,0,0,33.173v1.481L16.493,25.12Z" fill="#fff"/><path d="M17.776,47.794,45.4,31.833l1.294,2.243L81.942,13.734l-2.577-1.5-2.587-1.481-1.294-.741L0,53.594v1.481l16.493-9.535Z" transform="translate(0 0.432)" fill="#fff"/><path d="M17.776,58.021,54.433,36.844l1.294,2.222L90.976,18.7l-2.587-1.45-2.577-1.513L84.519,15,0,63.8v1.513l16.493-9.535Z" transform="translate(0 0.648)" fill="#fff"/><path d="M17.776,68.226,63.728,41.7l1.294,2.222,34.988-20.2-2.587-1.5-2.577-1.481L93.553,20,0,74.027v1.481l16.493-9.535Z" transform="translate(0 0.863)" fill="#fff"/><path d="M17.776,78.422,72.762,46.688l1.294,2.253,34.988-20.217-2.587-1.492-2.577-1.5-1.294-.741L0,84.232v1.481L16.493,76.2Z" transform="translate(0 1.08)" fill="#fff"/><path d="M112.914,30.752l-1.294-.762L0,94.459V95.94l16.493-9.514,1.283,2.222L72.762,56.915l1.294,2.222L114.844,35.6V31.878Z" transform="translate(0 1.294)" fill="#fff"/><path d="M6.832,101.917l9.253-5.331,1.283,2.222L72.261,67.127l1.294,2.243,41.049-23.7V38.21L5.57,101.177Z" transform="translate(0.241 1.65)" fill="#fff"/><path d="M71.887,77.137,73.18,79.38l41.049-23.7V48.22l-100,57.73,1.283.751,9.389-5.425,1.294,2.243" transform="translate(0.615 2.084)" fill="#fff"/><path d="M24.174,111.5l9.389-5.445,1.294,2.243L71.514,87.127l1.294,2.243,41.049-23.7V58.21l-91,52.524Z" transform="translate(0.987 2.515)" fill="#fff"/><path d="M32.834,116.28l9.389-5.425,1.294,2.222,27.624-15.94,1.294,2.222,41.049-23.712V68.22L31.54,115.539Z" transform="translate(1.362 2.947)" fill="#fff"/><path d="M40.2,120.313l1.294.741,9.42-5.425,1.262,2.243,18.59-10.755,1.294,2.253,41.049-23.712V78.21Z" transform="translate(1.736 3.378)" fill="#fff"/><path d="M50.154,125.858l9.389-5.456,1.294,2.253,9.556-5.55,1.294,2.253,41.049-23.691V88.22l-63.874,36.9Z" transform="translate(2.11 3.81)" fill="#fff"/><path d="M72.908,8.725,70.332,7.243h0L67.744,5.762,66.461,4.99,0,43.369V44.85l16.493-9.5,1.283,2.222,18.6-10.734,1.314,2.253Z" transform="translate(0 0.217)" fill="#fff"/></g></g></g></svg>
